packages/icons/src/components/Logo/assets/dark/red-hat.svg

<svg width="20" height="20" viewBox="0 0 20 20" fill="none" xmlns="http://www.w3.org/2000/svg">
<path d="M13.3473 11.1419C14.6611 11.1419 16.5633 10.872 16.5633 9.32508C16.5633 9.20673 16.5527 9.08862 16.5318 8.97209L15.7541 5.60834C15.5754 4.87122 15.4178 4.52862 14.104 3.88494C13.0846 3.36584 10.8671 2.5249 10.2049 2.5249C9.58487 2.5249 9.4062 3.30355 8.68103 3.30355C7.97688 3.30355 7.4619 2.72216 6.79979 2.72216C6.16921 2.72216 5.75933 3.14782 5.44404 4.0199C5.44404 4.0199 4.56122 6.48042 4.44561 6.84379C4.42825 6.90806 4.42115 6.97462 4.42459 7.04105C4.41408 7.99619 8.22911 11.1315 13.3473 11.1419ZM16.763 9.95838C16.9417 10.8097 16.9417 10.9031 16.9417 11.007C16.9417 12.4604 15.2916 13.2702 13.1161 13.2702C8.19758 13.2702 3.89911 10.4256 3.89911 8.54643C3.89862 8.28581 3.95228 8.02787 4.05675 7.78855C2.29112 7.87161 0 8.18306 0 10.1764C0 13.4467 7.84025 17.4749 14.041 17.4749C18.8019 17.4749 20 15.3466 20 13.6647C20 12.3462 18.8439 10.8512 16.763 9.95838Z" fill="#EE0000"/>
<path d="M16.763 9.95882C16.9417 10.8101 16.9417 10.9036 16.9417 11.0074C16.9417 12.4609 15.2917 13.2707 13.1161 13.2707C8.19759 13.2707 3.89911 10.426 3.89911 8.54688C3.89863 8.28626 3.95228 8.02831 4.05676 7.789L4.44562 6.84424C4.42825 6.90851 4.42116 6.97506 4.4246 7.0415C4.4246 7.99663 8.23963 11.132 13.3474 11.132C14.6611 11.132 16.5633 10.8621 16.5633 9.31514C16.5633 9.1968 16.5527 9.07868 16.5318 8.96216L16.763 9.95882Z" fill="black"/>
</svg>

<svg xmlns="http://www.w3.org/2000/svg" width="20" height="20" fill="none" viewBox="0 0 20 20">
    <path fill="#e00" d="M13.347 11.142c1.314 0 3.216-.27 3.216-1.817a2 2 0 0 0-.031-.353l-.778-3.364c-.179-.737-.336-1.08-1.65-1.723-1.02-.52-3.237-1.36-3.9-1.36-.62 0-.798.779-1.523.779-.704 0-1.22-.582-1.881-.582-.63 0-1.04.426-1.356 1.298 0 0-.883 2.46-.998 2.824a.6.6 0 0 0-.021.197c-.01.955 3.804 4.09 8.922 4.1m3.416-1.184c.179.852.179.945.179 1.049 0 1.453-1.65 2.263-3.826 2.263-4.918 0-9.217-2.844-9.217-4.724 0-.26.053-.518.158-.757C2.29 7.872 0 8.183 0 10.176c0 3.27 7.84 7.299 14.041 7.299 4.76 0 5.959-2.128 5.959-3.81 0-1.319-1.156-2.814-3.237-3.707"/>
    <path fill="#000" d="M16.763 9.959c.179.851.179.945.179 1.048 0 1.454-1.65 2.264-3.826 2.264-4.918 0-9.217-2.845-9.217-4.724 0-.26.053-.519.158-.758l.389-.945a.6.6 0 0 0-.021.197c0 .956 3.815 4.091 8.922 4.091 1.314 0 3.216-.27 3.216-1.817a2 2 0 0 0-.031-.353z"/>
</svg>
